Simply white circles/scalable/actions/stock_folder-properties.svg

<svg xmlns="http://www.w3.org/2000/svg" width="24" height="24">
  <path fill="#e6e6e6" d="M6.6015626 1.6448577a6.0712935 6.0712935 0 0 0-.5546875.0585938c-.1854776.0284469-.3689724.0687279-.5488281.1113281l-.0722656 1.8183593a4.2749821 4.2749821 0 0 0-.7773438.3867188L3.1679689 2.9827483c-.2982164.2442455-.5462734.5256072-.7910157.8203125l1.0097657 1.4902344a4.313365 4.313365 0 0 0-.3945313.7636719l-1.8007812.0332031a5.8938801 5.8938801 0 0 0-.1777344 1.1308594l1.6835938.6054687a4.1163337 4.1163337 0 0 0 .041016.4238282c.022385.1459562.051861.2785328.08789.4179687L1.4023439 9.7503265c.1393194.3626165.3048564.7055365.5078125 1.0273445l1.7285156-.507813c.1808136.222441.3861063.426218.6054688.607422l-.5175782 1.726562c.3218125.207812.644248.401301 1.0019532.544922l1.1015624-1.435547c.2756807.0758.565509.1202.8574219.138672l.6113281 1.712891a6.0712935 6.0712935 0 0 0 1.1074219-.169922l.00781-.205078 1.15625.626953a5.4952039 5.4952039 0 0 0-.033203.568359c0 .197127.01386.377077.033203.56836l-2.0976562 1.138672c.1104516.506685.2582562.995222.4609375 1.460937l2.3847656-.320312c.193574.330112.422998.640328.675782.923828l-1.0312507 2.171875c.3825917.339346.7660417.661921 1.2089847.923828l1.74414-1.673828c.348432.155821.722061.273971 1.103515.357422l.462894 2.384765a8.1050266 8.1050266 0 0 0 1.494141 0l.46289-2.384765c.380316-.08294.754271-.201097 1.101563-.357422l1.746094 1.675781c.441803-.26194.82558-.586435 1.207031-.925781l-1.029297-2.171875c.252782-.283433.482207-.593616.675781-.923828l2.382813.320312a7.8681845 7.8681845 0 0 0 .46289-1.460937l-2.099609-1.138672c.01938-.191081.03516-.371334.03516-.56836 0-.197126-.01579-.377075-.03516-.568359l2.099609-1.138672a7.8659073 7.8659073 0 0 0-.46289-1.460937l-2.382813.322265a5.7582358 5.7582358 0 0 0-.675781-.927734l1.029297-2.1679692c-.381452-.3392793-.765228-.6638414-1.207031-.9257812l-1.746094 1.671875a5.7104117 5.7104117 0 0 0-1.103516-.3554688l-.46289-2.3828125a8.1050266 8.1050266 0 0 0-.744141-.037109c-.250505 0-.502096.017295-.748047.037109l-.462891 2.3828125a5.7069958 5.7069958 0 0 0-1.103515.3554688l-.181641-.1738281a5.8938801 5.8938801 0 0 0 .154297-1.0273438l-1.683594-.6054688c-.0073-.143682-.01668-.2798993-.03906-.4257812-.02239-.1459562-.05382-.2765775-.08984-.4160156l1.425775-1.0820313a5.8921743 5.8921743 0 0 0-.509765-1.0273437l-1.726563.5078125a4.313365 4.313365 0 0 0-.6074218-.609375l.5175778-1.7226563c-.3209624-.2078917-.643133-.4050534-.9999996-.5488281L8.0742189 3.4944671a4.2775411 4.2775411 0 0 0-.8574219-.1367188zm.2167969 3.4042969a2.5589493 2.5589493 0 0 1 .5214844 5.0859374 2.5589493 2.5589493 0 0 1-.7753907-5.0585937 2.5589493 2.5589493 0 0 1 .2539063-.0273437zm8.4121095 5.9199224a3.4161342 3.4161342 0 0 1 0 6.832031 3.4161342 3.4161342 0 0 1 0-6.832031z"/>
</svg>

<?xml version="1.0" encoding="UTF-8" standalone="no"?>
<svg
   xmlns:dc="http://purl.org/dc/elements/1.1/"
   xmlns:cc="http://creativecommons.org/ns#"
   xmlns:rdf="http://www.w3.org/1999/02/22-rdf-syntax-ns#"
   xmlns:svg="http://www.w3.org/2000/svg"
   xmlns="http://www.w3.org/2000/svg"
   xmlns:sodipodi="http://sodipodi.sourceforge.net/DTD/sodipodi-0.dtd"
   xmlns:inkscape="http://www.inkscape.org/namespaces/inkscape"
   viewBox="0 0 24 24"
   version="1.1"
   id="svg4"
   sodipodi:docname="stock_folder-properties.svg"
   inkscape:version="0.92.3 (2405546, 2018-03-11)"
   width="24"
   height="24"
   style="fill:#000000">
  <metadata
     id="metadata10">
    <rdf:RDF>
      <cc:Work
         rdf:about="">
        <dc:format>image/svg+xml</dc:format>
        <dc:type
           rdf:resource="http://purl.org/dc/dcmitype/StillImage" />
        <dc:title></dc:title>
      </cc:Work>
    </rdf:RDF>
  </metadata>
  <defs
     id="defs8" />
  <sodipodi:namedview
     pagecolor="#ffffff"
     bordercolor="#666666"
     borderopacity="1"
     objecttolerance="10"
     gridtolerance="10"
     guidetolerance="10"
     inkscape:pageopacity="0"
     inkscape:pageshadow="2"
     inkscape:window-width="1366"
     inkscape:window-height="719"
     id="namedview6"
     showgrid="false"
     inkscape:zoom="22.5"
     inkscape:cx="11.4"
     inkscape:cy="11.822222"
     inkscape:window-x="0"
     inkscape:window-y="25"
     inkscape:window-maximized="1"
     inkscape:current-layer="svg4"
     showguides="true"
     inkscape:guide-bbox="true"
     inkscape:snap-global="false"
     inkscape:measure-start="7.4739,18.719"
     inkscape:measure-end="7.33677,18.8562" />
  <path
     inkscape:connector-curvature="0"
     style="fill:#e6e6e6;fill-opacity:1;stroke-width:0.23248723"
     d="M 6.6015626,1.6448577 A 6.0712935,6.0712935 0 0 0 6.0468751,1.7034515 C 5.8613975,1.7318984 5.6779027,1.7721794 5.498047,1.8147796 L 5.4257814,3.6331389 A 4.2749821,4.2749821 0 0 0 4.6484376,4.0198577 L 3.1679689,2.9827483 C 2.8697525,3.2269938 2.6216955,3.5083555 2.3769532,3.8030608 L 3.3867189,5.2932952 A 4.313365,4.313365 0 0 0 2.9921876,6.0569671 L 1.1914064,6.0901702 A 5.8938801,5.8938801 0 0 0 1.013672,7.2210296 l 1.6835938,0.6054687 a 4.1163337,4.1163337 0 0 0 0.041016,0.4238282 c 0.022385,0.1459562 0.051861,0.2785328 0.08789,0.4179687 L 1.4023439,9.7503265 C 1.5416633,10.112943 1.7072003,10.455863 1.9101564,10.777671 L 3.638672,10.269858 c 0.1808136,0.222441 0.3861063,0.426218 0.6054688,0.607422 l -0.5175782,1.726562 c 0.3218125,0.207812 0.644248,0.401301 1.0019532,0.544922 l 1.1015624,-1.435547 c 0.2756807,0.0758 0.565509,0.1202 0.8574219,0.138672 l 0.6113281,1.712891 a 6.0712935,6.0712935 0 0 0 1.1074219,-0.169922 l 0.00781,-0.205078 1.15625,0.626953 a 5.4952039,5.4952039 0 0 0 -0.033203,0.568359 c 0,0.197127 0.01386,0.377077 0.033203,0.56836 l -2.0976562,1.138672 c 0.1104516,0.506685 0.2582562,0.995222 0.4609375,1.460937 l 2.3847656,-0.320312 c 0.193574,0.330112 0.422998,0.640328 0.675782,0.923828 l -1.0312507,2.171875 c 0.3825917,0.339346 0.7660417,0.661921 1.2089847,0.923828 l 1.74414,-1.673828 c 0.348432,0.155821 0.722061,0.273971 1.103515,0.357422 l 0.462894,2.384765 a 8.1050266,8.1050266 0 0 0 1.494141,0 l 0.46289,-2.384765 c 0.380316,-0.08294 0.754271,-0.201097 1.101563,-0.357422 l 1.746094,1.675781 c 0.441803,-0.26194 0.82558,-0.586435 1.207031,-0.925781 l -1.029297,-2.171875 c 0.252782,-0.283433 0.482207,-0.593616 0.675781,-0.923828 l 2.382813,0.320312 a 7.8681845,7.8681845 0 0 0 0.46289,-1.460937 l -2.099609,-1.138672 c 0.01938,-0.191081 0.03516,-0.371334 0.03516,-0.56836 0,-0.197126 -0.01579,-0.377075 -0.03516,-0.568359 l 2.099609,-1.138672 a 7.8659073,7.8659073 0 0 0 -0.46289,-1.460937 l -2.382813,0.322265 A 5.7582358,5.7582358 0 0 0 19.464844,10.611655 L 20.494141,8.4436858 C 20.112689,8.1044065 19.728913,7.7798444 19.28711,7.5179046 l -1.746094,1.671875 A 5.7104117,5.7104117 0 0 0 16.4375,8.8343108 L 15.97461,6.4514983 a 8.1050266,8.1050266 0 0 0 -0.744141,-0.037109 c -0.250505,0 -0.502096,0.017295 -0.748047,0.037109 L 14.019531,8.8343108 A 5.7069958,5.7069958 0 0 0 12.916016,9.1897796 L 12.734375,9.0159515 A 5.8938801,5.8938801 0 0 0 12.888672,7.9886077 L 11.205078,7.3831389 c -0.0073,-0.143682 -0.01668,-0.2798993 -0.03906,-0.4257812 -0.02239,-0.1459562 -0.05382,-0.2765775 -0.08984,-0.4160156 L 12.501953,5.4593108 A 5.8921743,5.8921743 0 0 0 11.992188,4.4319671 L 10.265625,4.9397796 A 4.313365,4.313365 0 0 0 9.6582032,4.3304046 L 10.175781,2.6077483 C 9.8548186,2.3998566 9.532648,2.2026949 9.1757814,2.0589202 L 8.0742189,3.4944671 A 4.2775411,4.2775411 0 0 0 7.216797,3.3577483 Z M 6.8183595,5.0491546 A 2.5589493,2.5589493 0 0 1 7.3398439,10.135092 2.5589493,2.5589493 0 0 1 6.5644532,5.0764983 2.5589493,2.5589493 0 0 1 6.8183595,5.0491546 Z m 8.4121095,5.9199224 a 3.4161342,3.4161342 0 0 1 0,6.832031 3.4161342,3.4161342 0 0 1 0,-6.832031 z"
     id="path818" />
</svg>
